X: 100456
T: EXERCISE -- "LODER."
C: Arranged by W.B. Laybourn
B: K\"ohler's Violin Repository, v.3, 1885 p.286 #2
F: http://www.archive.org/details/klersviolinrepos03rugg
Z: 2012 John Chambers <jc:trillian.mit.edu>
P: Violin Primo
Q: "Andante"
M: 3/4
L: 1/8
K: G
|:\
(vd3 c) B2 | (B3 A) G2 | (Ed) (cB)AG | (F3 E) D2 |\
(d3 c) B2 | (B3 A) G2 | (EA) G2 F2 | (F2 G2) z2 :|
|: (vec) (Gc) eg | (g3f/e/) d2 | (cA) (FA) Dc | (B3 c) d2 |\
(ec) (Gc) eg | (dB) (GB) dg | edcBAG | FEDCB,A, |
([d3D3G,3] c) B2 | (B3 A) G2 | (Ed) (cB) AG | (F3 E) D2 |\
(d3 c) B2 | (B3 A) G2 | (EA) G2 F2 | (F2 G2) z2 :|

%%sep 2 1 500

